X:251
T:Trunkles - Bledington
M:2/2
L:1/8
K:G
d2 d2 c2 e2 | dcBA B2 G2 | d2 d2 c2 e2
|1 dcBA G2 Bc :|2 dcBAG4 || 
B2 Bc d2 d2 | efge d2 g2 | f2 ed ^c2 A2 | d4 d2 || 
cd | e2 c2 cdec | d2 B2 BcdB | c2 A2 ABce | dcBA G2 B2 | 
cBAG F2 A2 | G4 G2 || 
cd | e4 c4 | c2 d2 e2 c2 | d4 B4 | B2 c2 d2 B2 | 
c4 A4 | A2 B2 c2 e2 | d3 c B2 A2 | G2 B2 | 
cBAG F2 A2 | G4 G2 || 

